icon/svg/fallfest/transparent.svg

<?xml version="1.0" encoding="UTF-8"?>
<svg id="Layer_1" data-name="Layer 1" xmlns="http://www.w3.org/2000/svg" xmlns:xlink="http://www.w3.org/1999/xlink" viewBox="0 0 180 180">
  <defs>
    <filter id="drop-shadow-1" filterUnits="userSpaceOnUse">
      <feOffset dx="11.73" dy="11.73"/>
      <feGaussianBlur result="blur" stdDeviation="16.76"/>
      <feFlood flood-color="#000" flood-opacity=".9"/>
      <feComposite in2="blur" operator="in"/>
      <feComposite in="SourceGraphic"/>
    </filter>
    <linearGradient id="linear-gradient" x1="45.86" y1="137.81" x2="134.14" y2="42.2" gradientUnits="userSpaceOnUse">
      <stop offset="0" stop-color="#ff9826"/>
      <stop offset=".76" stop-color="#ff5615"/>
      <stop offset="1" stop-color="#ff5b16"/>
      <stop offset="1" stop-color="#ff5b16"/>
    </linearGradient>
  </defs>
  <path d="M158.61,101.45l-57.17,57.17c-6.32,6.31-16.56,6.31-22.88,0L21.39,101.45c-6.32-6.32-6.32-16.57,0-22.89L78.56,21.39c6.32-6.32,16.56-6.32,22.88,0l57.17,57.17c6.32,6.32,6.32,16.57,0,22.89Z" style="fill: #160e0b;"/>
  <g style="filter: url(#drop-shadow-1);">
    <path d="M158.61,101.45l-57.17,57.17c-6.32,6.31-16.56,6.31-22.88,0L21.39,101.45c-6.32-6.32-6.32-16.57,0-22.89L78.56,21.39c6.32-6.32,16.56-6.32,22.88,0l57.17,57.17c6.32,6.32,6.32,16.57,0,22.89Z" style="fill: none; stroke: url(#linear-gradient); stroke-miterlimit: 10; stroke-width: 13.77px;"/>
  </g>
  <g>
    <g>
      <polygon points="73.35 56.79 56.34 78.66 81.91 81.99 73.35 56.79" style="fill: #fff;"/>
      <polygon points="106.65 56.79 123.66 78.66 98.09 81.99 106.65 56.79" style="fill: #fff;"/>
    </g>
    <polygon points="90 99.44 98.09 87.69 81.91 87.69 90 99.44" style="fill: #fff;"/>
    <path d="M130.79,101.09c-1.36,11.88-17.73,21.38-38.2,22.13v-9.47h-14.1v8.56c-16.08-2.73-28.06-11.06-29.28-21.11,5.12,1.13,10.7,2.05,16.63,2.72v8.26h9.34v-7.42c4.71,.31,9.59,.48,14.58,.48,4.58,0,9.06-.14,13.4-.4v7.35h9.34v-8.13c6.56-.7,12.71-1.71,18.29-2.96Z" style="fill: #fff;"/>
  </g>
</svg>

<?xml version="1.0" encoding="UTF-8" standalone="no"?>
<!DOCTYPE svg PUBLIC "-//W3C//DTD SVG 1.1//EN" "http://www.w3.org/Graphics/SVG/1.1/DTD/svg11.dtd">
<svg width="100%" height="100%" viewBox="0 0 180 180" version="1.1" xmlns="http://www.w3.org/2000/svg" xmlns:xlink="http://www.w3.org/1999/xlink" xml:space="preserve" xmlns:serif="http://www.serif.com/" style="fill-rule:evenodd;clip-rule:evenodd;stroke-miterlimit:10;">
    <g transform="matrix(1,0,0,1,-220,-1870)">
        <g transform="matrix(1,0,0,1,3,0)">
            <g id="fallfest-transparent" serif:id="fallfest/transparent" transform="matrix(0.9,0,0,0.9,217,1870)">
                <rect x="0" y="0" width="200" height="200" style="fill:none;"/>
                <clipPath id="_clip1">
                    <rect x="0" y="0" width="200" height="200"/>
                </clipPath>
                <g clip-path="url(#_clip1)">
                    <g transform="matrix(1.11111,0,0,1.11111,0.0513889,-0.00138889)">
                        <path d="M158.61,101.45L101.44,158.62C95.12,164.93 84.88,164.93 78.56,158.62L21.39,101.45C15.07,95.13 15.07,84.88 21.39,78.56L78.56,21.39C84.88,15.07 95.12,15.07 101.44,21.39L158.61,78.56C164.93,84.88 164.93,95.13 158.61,101.45Z" style="fill:rgb(22,14,11);fill-rule:nonzero;"/>
                    </g>
                    <g transform="matrix(1.11111,0,0,1.11111,0.0513889,-0.00138889)">
                        <path d="M158.61,101.45L101.44,158.62C95.12,164.93 84.88,164.93 78.56,158.62L21.39,101.45C15.07,95.13 15.07,84.88 21.39,78.56L78.56,21.39C84.88,15.07 95.12,15.07 101.44,21.39L158.61,78.56C164.93,84.88 164.93,95.13 158.61,101.45Z" style="fill:none;fill-rule:nonzero;stroke:url(#_Linear2);stroke-width:13.77px;"/>
                    </g>
                    <g transform="matrix(1.11111,0,0,1.11111,-11.1111,-11.1111)">
                        <g transform="matrix(1,0,0,1,10.0462,9.99875)">
                            <path d="M73.35,56.79L56.34,78.66L81.91,81.99L73.35,56.79Z" style="fill:white;fill-rule:nonzero;"/>
                            <path d="M106.65,56.79L123.66,78.66L98.09,81.99L106.65,56.79Z" style="fill:white;fill-rule:nonzero;"/>
                        </g>
                        <g transform="matrix(1,0,0,1,10.0462,9.99875)">
                            <path d="M90,99.44L98.09,87.69L81.91,87.69L90,99.44Z" style="fill:white;fill-rule:nonzero;"/>
                        </g>
                        <g transform="matrix(1,0,0,1,10.0462,9.99875)">
                            <path d="M130.79,101.09C129.43,112.97 113.06,122.47 92.59,123.22L92.59,113.75L78.49,113.75L78.49,122.31C62.41,119.58 50.43,111.25 49.21,101.2C54.33,102.33 59.91,103.25 65.84,103.92L65.84,112.18L75.18,112.18L75.18,104.76C79.89,105.07 84.77,105.24 89.76,105.24C94.34,105.24 98.82,105.1 103.16,104.84L103.16,112.19L112.5,112.19L112.5,104.06C119.06,103.36 125.21,102.35 130.79,101.1L130.79,101.09Z" style="fill:white;fill-rule:nonzero;"/>
                        </g>
                    </g>
                </g>
            </g>
        </g>
    </g>
    <defs>
        <linearGradient id="_Linear2" x1="0" y1="0" x2="1" y2="0" gradientUnits="userSpaceOnUse" gradientTransform="matrix(88.28,-95.61,95.61,88.28,45.86,137.81)"><stop offset="0" style="stop-color:rgb(255,152,38);stop-opacity:1"/><stop offset="0.76" style="stop-color:rgb(255,86,21);stop-opacity:1"/><stop offset="1" style="stop-color:rgb(255,91,22);stop-opacity:1"/><stop offset="1" style="stop-color:rgb(255,91,22);stop-opacity:1"/></linearGradient>
    </defs>
</svg>
